storage/app/icons/phosphoricons/light/matrix-logo-light.svg

<svg xmlns="http://www.w3.org/2000/svg" fill="currentColor" viewBox="0 0 256 256"><path d="M46 46v164h18a6 6 0 0 1 0 12H40a6 6 0 0 1-6-6V40a6 6 0 0 1 6-6h24a6 6 0 0 1 0 12Zm170-12h-24a6 6 0 0 0 0 12h18v164h-18a6 6 0 0 0 0 12h24a6 6 0 0 0 6-6V40a6 6 0 0 0-6-6m-64 56a30 30 0 0 0-24 12 30 30 0 0 0-42-6 6 6 0 0 0-12 0v64a6 6 0 0 0 12 0v-40a18 18 0 0 1 36 0v40a6 6 0 0 0 12 0v-40a18 18 0 0 1 36 0v40a6 6 0 0 0 12 0v-40a30 30 0 0 0-30-30"/></svg>

<svg xmlns="http://www.w3.org/2000/svg" viewBox="0 0 256 256" fill="currentColor"><path d="M46,46V210H64a6,6,0,0,1,0,12H40a6,6,0,0,1-6-6V40a6,6,0,0,1,6-6H64a6,6,0,0,1,0,12ZM216,34H192a6,6,0,0,0,0,12h18V210H192a6,6,0,0,0,0,12h24a6,6,0,0,0,6-6V40A6,6,0,0,0,216,34ZM152,90a30,30,0,0,0-24,12,30,30,0,0,0-42-6v0a6,6,0,0,0-12,0v64a6,6,0,0,0,12,0V120a18,18,0,0,1,36,0v40a6,6,0,0,0,12,0V120a18,18,0,0,1,36,0v40a6,6,0,0,0,12,0V120A30,30,0,0,0,152,90Z"/></svg>
